dist/img/icon/close-black-button.svg

<svg width="50" height="50" viewBox="0 0 50 50" fill="none" xmlns="http://www.w3.org/2000/svg">
<circle cx="25" cy="25" r="25" fill="black"/>
<path d="M14.0416 36.9904C13.7728 36.9904 13.504 36.8849 13.3024 36.6834C12.8992 36.2804 12.8992 35.6184 13.3024 35.2059L35.2192 13.3022C35.6224 12.8993 36.2848 12.8993 36.6976 13.3022C37.1008 13.7052 37.1008 14.3672 36.6976 14.7797L14.7808 36.6834C14.5792 36.8849 14.3104 36.9904 14.0416 36.9904Z" fill="white"/>
<path d="M35.9488 36.9904C35.68 36.9904 35.4112 36.8849 35.2096 36.6834L13.3024 14.7893C12.8992 14.3864 12.8992 13.7244 13.3024 13.3118C13.7056 12.9088 14.368 12.9088 14.7808 13.3118L36.6976 35.2155C37.1008 35.6184 37.1008 36.2804 36.6976 36.693C36.496 36.8945 36.2272 37 35.9584 37L35.9488 36.9904Z" fill="white"/>
</svg>

<svg width="50" height="50" viewBox="0 0 50 50" fill="none" xmlns="http://www.w3.org/2000/svg"><circle cx="25" cy="25" r="25" fill="#000"/><path d="M14.042 36.99c-.27 0-.538-.105-.74-.307a1.054 1.054 0 010-1.477L35.22 13.302a1.055 1.055 0 011.479 0 1.054 1.054 0 010 1.478L14.78 36.683c-.202.202-.47.307-.74.307z" fill="#fff"/><path d="M35.949 36.99c-.269 0-.538-.105-.74-.307L13.303 14.79a1.054 1.054 0 010-1.477 1.055 1.055 0 011.479 0l21.917 21.904a1.054 1.054 0 010 1.477c-.202.202-.47.307-.74.307l-.01-.01z" fill="#fff"/></svg>
